packages/ui-icons/svg/Line/expand-left.svg

<svg viewBox="0 0 1920 1920" version="1.1" xmlns="http://www.w3.org/2000/svg">
    <path d="M1468.29412,0 L1468.29412,112.941176 L282.411765,112.941176 C251.208324,112.941176 225.941176,138.190874 225.941176,169.411765 L225.941176,169.411765 L225.941176,1750.58824 C225.941176,1781.80913 251.208324,1807.05882 282.411765,1807.05882 L282.411765,1807.05882 L1468.29412,1807.05882 L1468.29412,1920 L282.411765,1920 C188.850095,1920 113,1844.20229 113,1750.58824 L113,1750.58824 L113,169.411765 C113,75.7977119 188.850095,0 282.411765,0 L282.411765,0 L1468.29412,0 Z M1807.11765,0 L1807.11765,1920 L1694.17647,1920 L1694.17647,0 L1807.11765,0 Z M863.657499,581.245735 L943.518971,661.107206 L701.096,903.529 L1355.35294,903.529412 L1355.35294,1016.47059 L701.097,1016.47 L943.518971,1258.89279 L863.657499,1338.75427 L484.903234,960 L863.657499,581.245735 Z" fill-rule="nonzero" stroke="none" stroke-width="1"/>
</svg>

<svg viewBox="0 0 1920 1920" version="1.1" xmlns="http://www.w3.org/2000/svg">
    <path d="M701.097 903.53h654.256v112.94H701.097l242.422 242.423-79.862 79.861L484.903 960l378.754-378.754 79.862 79.861L701.097 903.53zm767.197 903.529V1920H282.412C188.85 1920 113 1844.202 113 1750.588V169.412C113 75.798 188.85 0 282.412 0h1185.882v112.941H282.412c-31.204 0-56.47 25.25-56.47 56.47v1581.177c0 31.221 25.266 56.47 56.47 56.47h1185.882zM1694.176 0h112.942v1920h-112.942V0z" fill-rule="nonzero" stroke="none" stroke-width="1"/>
</svg>
